css/images/hola.svg

<svg xmlns="http://www.w3.org/2000/svg" xmlns:xlink="http://www.w3.org/1999/xlink" width="1242" height="333" viewBox="0 0 1242 333">
  <defs>
    <path id="rectangle-a" d="M896,129.618817 L896,102 L958,102 L958,302 L896,302 L896,274.381183 C878.054563,291.493418 853.754253,302 827,302 C771.771525,302 727,257.228475 727,202 C727,146.771525 771.771525,102 827,102 C853.754253,102 878.054563,112.506582 896,129.618817 Z M248,102 L248,2 L186,2 L186,302 L248,302 L248,164 L310,164 L310,302 L372,302 L372,2 L310,2 L310,102 L248,102 Z M31,133 L93,133 L124,333 L0,333 L31,133 Z M19.6532125,62.6532125 L73.3467875,31.6532125 L104.346788,85.3467875 L50.6532125,116.346788 L19.6532125,62.6532125 Z M503,302 C447.771525,302 403,257.228475 403,202 C403,146.771525 447.771525,102 503,102 C558.228475,102 603,146.771525 603,202 C603,257.228475 558.228475,302 503,302 Z M503,240 C523.98682,240 541,222.98682 541,202 C541,181.01318 523.98682,164 503,164 C482.01318,164 465,181.01318 465,202 C465,222.98682 482.01318,240 503,240 Z M634,2.42631645 L696,2.42631645 L696,302.426316 L634,302.426316 L634,2.42631645 Z M827,240 C847.98682,240 865,222.98682 865,202 C865,181.01318 847.98682,164 827,164 C806.01318,164 789,181.01318 789,202 C789,222.98682 806.01318,240 827,240 Z M1060.84679,189.131397 L1134,0.426316451 L1241.38715,62.4263165 L1114.54036,220.131397 L1060.84679,189.131397 Z M1015.84998,267.073684 L1046.84998,213.380109 L1100.54355,244.380109 L1069.54355,298.073684 L1015.84998,267.073684 Z"/>
    <linearGradient id="rectangle-b" x1="14.171%" x2="80.314%" y1="18.573%" y2="76.192%">
      <stop offset="0%" stop-color="#006FFF"/>
      <stop offset="100%" stop-color="#1BE6FF"/>
    </linearGradient>
  </defs>
  <g fill="none" fill-rule="evenodd">
    <mask id="rectangle-c" fill="#fff">
      <use xlink:href="#rectangle-a"/>
    </mask>
    <rect width="1761" height="546" x="-275" y="-118" fill="url(#rectangle-b)" mask="url(#rectangle-c)"/>
  </g>
</svg>

<svg xmlns="http://www.w3.org/2000/svg" xmlns:xlink="http://www.w3.org/1999/xlink" width="1242" height="333" viewBox="0 0 1242 333"><defs><path id="a" d="M896 129.619V102h62v200h-62v-27.619C878.055 291.493 853.754 302 827 302c-55.228 0-100-44.772-100-100s44.772-100 100-100c26.754 0 51.055 10.507 69 27.619zM248 102V2h-62v300h62V164h62v138h62V2h-62v100h-62zM31 133h62l31 200H0l31-200zM19.653 62.653l53.694-31 31 53.694-53.694 31-31-53.694zM503 302c-55.228 0-100-44.772-100-100s44.772-100 100-100 100 44.772 100 100-44.772 100-100 100zm0-62c20.987 0 38-17.013 38-38s-17.013-38-38-38-38 17.013-38 38 17.013 38 38 38zM634 2.426h62v300h-62v-300zM827 240c20.987 0 38-17.013 38-38s-17.013-38-38-38-38 17.013-38 38 17.013 38 38 38zm233.847-50.869L1134 .426l107.387 62-126.847 157.705-53.693-31zm-44.997 77.943l31-53.694 53.694 31-31 53.694-53.694-31z"/><linearGradient id="b" x1="14.171%" x2="80.314%" y1="18.573%" y2="76.192%"><stop offset="0%" stop-color="#006FFF"/><stop offset="100%" stop-color="#1BE6FF"/></linearGradient></defs><g fill="none" fill-rule="evenodd"><mask id="c" fill="#fff"><use xlink:href="#a"/></mask><path fill="url(#b)" mask="url(#c)" d="M-275-118h1761v546H-275z"/></g></svg>
